X:451
T:Polska av O. Styrlander d.y.
T:(SvL Östergötland 451)
R:Polska
O:Kisa, Östergötland
S:Fredrik Clarin
S:Johan Frans Clarin
S:Olof Styrlander d.y.
B:Svenska Låtar Östergötland
N:Med omstämd fiol i SvL.
M:3/4
L:1/8
K:A
e2-e^d/f/ ed/f/|eB/=d/ c/A/B/G/ A2|A,/C/E/C/ B,/D/E/D/ Ca|ag f/a/f/^d/ e2:|
|:e'c' ac' ec'|c'b g/e/g/b/ d'c'|e'c' ac' ec'|c'b g/e/g/b/ d'c'|ag aa/f/ ee/d/|cc/B/ d/B/G/B/ A2:|

